svgs/sharp-light/text.svg

<svg xmlns="http://www.w3.org/2000/svg" viewBox="0 0 448 512"><!--! Font Awesome Pro 6.6.0 by @fontawesome - https://fontawesome.com License - https://fontawesome.com/license (Commercial License) Copyright 2024 Fonticons, Inc. --><path d="M0 32l16 0 416 0 16 0 0 16 0 64 0 16-32 0 0-16 0-48L240 64l0 384 64 0 16 0 0 32-16 0-160 0-16 0 0-32 16 0 64 0 0-384L32 64l0 48 0 16L0 128l0-16L0 48 0 32z"/></svg>

<svg xmlns="http://www.w3.org/2000/svg" viewBox="0 0 448 512"><!--! Font Awesome Pro 6.4.2 by @fontawesome - https://fontawesome.com License - https://fontawesome.com/license (Commercial License) Copyright 2023 Fonticons, Inc. --><path d="M0 32H16 432h16V48v64 16H416V112 64H240l0 384h64 16v32H304 144 128V448h16 64l0-384H32v48 16H0V112 48 32z"/></svg>
